!!!OTL: "Heimweh" UND MEIN HERZ UND MEIN SINN
!!!ARE: Europa, Mitteleuropa, Steiermark
!!!SCT: Z1268
!!!YEM: Copyright 1995, estate of Helmut Schaffrath.
**kern
*ICvox
*Ivox
*M3/4
*k[b-e-a-]
*E-:
{8g
8e-
=1
4.B-
8G
8G
8E-
=2
8D
8F
4B-}
{8a-
8f
=3
4.B-
8A-
8A-
8F
=4
8G
8B-
8d
8e-}
{8g
8e-
=5
4.B-
8G
8G
8E-
=6
8D
8F
4B-}
{8a-
8f
=7
4.B-
8A-
8A-
8D
=8
4E-
4r}
{8B-
8e-
=9
8d
8B-
4.c
8a-
=10
8g
8e-
4.b-}
{8g
=11
8c
8a-
8f
8d
8B-
8d
=12
8e-
8G
8B-
8e-}
{8g
8b-
=13
8a-
8d
4.c
8a-
=14
8g
8e-
4.b-}
{8g
=15
8c
8a-
8f
8d
8B-
8d
=16
4e-
4r}
==
!!!AGN: Natur und Welt, Liebe
!!!ONB: ESAC (Essen Associative Code) Database: ZUCCAL
!!!AMT: simple triple
!!!AIN: vox
!!!EED: Helmut Schaffrath
!!!EEV: 1.0
*-
